epam-assets/icon-sources/18/table-columns.svg

<svg xmlns="http://www.w3.org/2000/svg" width="18" height="18" fill="none" viewBox="0 0 18 18">
  <path fill="#6C6F80" d="M2.25 15V3h3v12h-3Zm5.25 0V3h3v12h-3Zm5.25 0V3h3v12h-3Z"/>
</svg>

<svg width="18" height="18" viewBox="0 0 18 18" fill="none" xmlns="http://www.w3.org/2000/svg">
<g id="18/table-columns">
<path id="icon" d="M2.25 15V3H5.25V15H2.25ZM7.5 15V3H10.5V15H7.5ZM12.75 15V3H15.75V15H12.75Z" fill="#6C6F80"/>
</g>
</svg>
